X:1200
T:Man of the House
M:C|
L:1/8
R:reel
D:James Kelly, Paddy O'Brien and Daithi Sproule: Traditional Music of
D:Ireland
Z:Devin McCabe
K:DMin
D2AD FGAF|D/2F/2D AD GECE|DAAG (3EFG Ad|1cAGc ADEC:|2cAGc ADDA||
!defd efge|fedc dcAc|d3e fefa|gece fdde|
!fcAc fgaf|gfaf gfdf|afgf dfcf|dAAG FAGF||
